X: 1
T: Reel Around The Sun
M: 4/4
L: 1/8
R: reel
K: Ddor
|: A,DAG EccE | cAGE (3GAG EC | A, DAG EccE | cAGA ~c2 de | 
fgag (3fgf ed | cdeA cdGc | dFGA cdcA | {B}AEGC D2 z2 :|
K:Ador
|: eA (3Bcd efga | bc'bg ec' bg | eage dcBc | dGGd GGdG |
[1 eA (3Bcd efga | bc'bg ec' bg | eage dcBc | (3ded BG A2 (3eee :|
[2 A2 ed (3ABc de | fgab c'bag | eage dcBc | (3gfe GB A2 z2||
